X:1469
T:Polonesse in G Dur no 13 ur Anders Larssons notbok
S:Ur Anders Larssons notbok (1810-1813)
O:Östra Ryd, Östergötland
R:Slängpolska
Z:Till abc av Olle Paulsson
B: Anders Larssons notbok
B:http://www.smus.se/earkiv/fmk/browselarge.php?lang=sw&katalogid=M+189&bildnr=00006
M:3/4
L:1/16
K:G
cBAF G4 G,4|bagf gfed cBAG|cBAF G4 G,4|bagf g8:|
|:G2BG G2BG G2BG|A2cA A2cA A2cA|B2AB cdcB ABAG|
ABAG FGFE DEFD|d2f2e2f2g2a2|cBAG G4 G,4:|
(:musicend:)
(:music:)
